core/assets/icons/delivery.filled.svg

<svg width="24" height="24" viewBox="0 0 24 24" xmlns="http://www.w3.org/2000/svg"><g id="delivery=filled"><path id="Vector" d="M17 8H20L23 12.056V18H20.965C20.8461 18.8343 20.4302 19.5977 19.7937 20.1499C19.1571 20.7022 18.3427 21.0063 17.5 21.0063C16.6573 21.0063 15.8429 20.7022 15.2063 20.1499C14.5698 19.5977 14.1539 18.8343 14.035 18H8.965C8.84612 18.8343 8.43021 19.5977 7.79368 20.1499C7.15714 20.7022 6.34272 21.0063 5.5 21.0063C4.65728 21.0063 3.84286 20.7022 3.20632 20.1499C2.56979 19.5977 2.15388 18.8343 2.035 18H1V6C1 5.73478 1.10536 5.48043 1.29289 5.29289C1.48043 5.10536 1.73478 5 2 5H16C16.2652 5 16.5196 5.10536 16.7071 5.29289C16.8946 5.48043 17 5.73478 17 6V8ZM17 10V13H21V12.715L18.992 10H17Z"/></g></svg>

<svg xmlns="http://www.w3.org/2000/svg" width="24" height="24" fill="none"><path fill="#191C22" d="M17 8h3l3 4.056V18h-2.035a3.5 3.5 0 0 1-6.93 0h-5.07a3.5 3.5 0 0 1-6.93 0H1V6a1 1 0 0 1 1-1h14a1 1 0 0 1 1 1v2Zm0 2v3h4v-.285L18.992 10H17Z"/></svg>
